src/assets/images/prizes-not.svg

<svg width="212" height="212" viewBox="0 0 212 212" fill="none" xmlns="http://www.w3.org/2000/svg">
<circle cx="106" cy="106" r="106" fill="white" fill-opacity="0.05"/>
<path d="M146.518 111.109C144.06 110.449 142.613 107.937 143.271 105.474L150.396 78.8254C155.579 59.4415 144.053 39.4354 124.712 34.2415C105.37 29.0476 85.4071 40.5982 80.2244 59.982L73.1043 86.6125C72.4458 89.0756 69.9391 90.526 67.4813 89.866C65.0235 89.206 63.5763 86.6939 64.2349 84.2308L71.355 57.6003C74.4904 45.8736 82.0215 36.0543 92.5853 29.9571C103.131 23.8552 115.405 22.2154 127.088 25.3527C138.772 28.4901 148.587 36.0425 154.671 46.6292C160.76 57.1981 162.396 69.4983 159.266 81.2071L152.145 107.838C151.487 110.301 148.958 111.764 146.518 111.109Z" fill="white"/>
<path d="M54.168 32.6323L73.2426 37.7545L66.8956 61.4934L47.8209 56.3713L54.168 32.6323ZM167.814 63.15L186.889 68.2722L180.542 92.0111L161.467 86.889L167.814 63.15Z" fill="#505369"/>
<path d="M148.334 202.485L20.9208 168.271C15.4709 166.807 12.1936 161.145 13.6586 155.665L40.7266 54.4263L187.963 93.9639L160.895 195.203C159.43 200.682 153.784 203.949 148.334 202.485Z" fill="white"/>
<path d="M148.334 202.485L20.9208 168.271C15.4709 166.807 12.1936 161.145 13.6586 155.665L40.7266 54.4263L187.963 93.9639L160.895 195.203C159.43 200.682 153.784 203.949 148.334 202.485Z" fill="url(#paint0_linear_2201_4390)"/>
<path d="M187.96 93.9638C179.139 88.9742 172.833 83.0723 174.344 77.2797C175.295 73.6516 179.981 70.2612 186.876 68.2484L119.971 50.3207L54.1548 32.6085C59.0195 37.7601 61.5062 43.0956 60.5196 46.7142C58.9426 52.4698 50.6796 54.4596 40.7242 54.4262L187.96 93.9638Z" fill="#0073FF"/>
<path d="M60.5656 101.172C60.1664 102.665 60.0645 104.222 60.2659 105.755C60.4672 107.287 60.9677 108.765 61.7389 110.104C62.5101 111.443 63.5369 112.616 64.7606 113.557C65.9842 114.498 67.3809 115.188 68.8707 115.588C70.3606 115.988 71.9145 116.09 73.4437 115.889C74.9729 115.687 76.4475 115.185 77.7832 114.412C79.119 113.639 80.2898 112.61 81.2287 111.384C82.1677 110.158 82.8564 108.758 83.2556 107.265C83.6548 105.772 83.7567 104.215 83.5554 102.682C83.354 101.15 82.8535 99.6717 82.0823 98.3331C81.3111 96.9944 80.2843 95.8211 79.0606 94.8801C77.837 93.9391 76.4403 93.2488 74.9505 92.8488C73.4606 92.4487 71.9068 92.3466 70.3775 92.5484C68.8483 92.7501 67.3737 93.2518 66.038 94.0247C64.7022 94.7975 63.5314 95.8265 62.5925 97.0529C61.6535 98.2792 60.9648 99.6789 60.5656 101.172Z" fill="#0073FF"/>
<path d="M138.976 122.245C138.17 125.26 138.592 128.473 140.149 131.177C141.707 133.88 144.272 135.853 147.281 136.661C150.29 137.469 153.496 137.046 156.193 135.485C158.891 133.924 160.86 131.353 161.666 128.338C162.472 125.322 162.05 122.109 160.492 119.406C158.935 116.702 156.37 114.729 153.361 113.922C150.352 113.114 147.146 113.537 144.448 115.097C141.75 116.658 139.782 119.229 138.976 122.245Z" fill="#0073FF"/>
<path d="M155.426 123.987L146.556 121.605L153.681 94.9568C153.991 93.7966 154.086 92.4446 154.186 90.9985C154.315 89.1584 154.41 87.2326 155.049 85.1277L163.919 87.5095C164.15 90.001 163.09 95.3216 162.551 97.3386L155.426 123.987ZM76.3845 102.762L67.5151 100.38L74.64 73.7317C75.1936 71.6612 76.07 69.8114 76.8534 68.1661C77.4702 66.8587 78.0727 65.6048 78.3591 64.5339L87.2285 66.9156C86.1158 68.7212 84.0331 74.2262 83.5272 76.1182L76.4024 102.767L76.3845 102.762Z" fill="#0073FF"/>
<path d="M53.4562 99.2623C53.057 100.755 52.9551 102.313 53.1565 103.845C53.3578 105.378 53.8584 106.856 54.6296 108.194C55.4008 109.533 56.4275 110.706 57.6512 111.647C58.8749 112.588 60.2715 113.278 61.7613 113.679C63.2512 114.079 64.8051 114.181 66.3343 113.979C67.8635 113.777 69.3381 113.275 70.6738 112.503C72.0096 111.73 73.1804 110.701 74.1193 109.474C75.0583 108.248 75.747 106.848 76.1463 105.355C76.9525 102.34 76.5304 99.127 74.9729 96.4234C73.4154 93.7198 70.85 91.7471 67.8411 90.9391C64.8322 90.1311 61.6263 90.5541 58.9286 92.115C56.2309 93.6759 54.2624 96.2469 53.4562 99.2623Z" fill="white"/>
<path d="M131.89 120.343C131.491 121.836 131.389 123.393 131.59 124.926C131.791 126.458 132.292 127.936 133.063 129.275C133.834 130.613 134.861 131.787 136.085 132.728C137.308 133.669 138.705 134.359 140.195 134.759C141.685 135.159 143.239 135.261 144.768 135.059C146.297 134.858 147.772 134.356 149.107 133.583C150.443 132.81 151.614 131.781 152.553 130.555C153.492 129.329 154.181 127.929 154.58 126.436C154.979 124.943 155.081 123.386 154.88 121.853C154.678 120.32 154.178 118.843 153.406 117.504C152.635 116.165 151.609 114.992 150.385 114.051C149.161 113.11 147.765 112.42 146.275 112.02C144.785 111.62 143.231 111.518 141.702 111.719C140.173 111.921 138.698 112.423 137.362 113.196C136.026 113.968 134.856 114.997 133.917 116.224C132.978 117.45 132.289 118.85 131.89 120.343Z" fill="white"/>
<path d="M142.713 125.333C140.255 124.673 138.808 122.161 139.467 119.698L146.592 93.0495C151.774 73.6657 140.249 53.6595 120.907 48.4656C101.565 43.2717 81.6024 54.8223 76.4198 74.2061L69.2949 100.854C68.6363 103.318 66.1297 104.768 63.6719 104.108C61.2141 103.448 59.7669 100.936 60.4254 98.4727L67.5503 71.8244C70.6857 60.0977 78.2169 50.2784 88.7806 44.1812C99.3265 38.0793 111.6 36.4395 123.283 39.5769C134.967 42.7142 144.783 50.2666 150.867 60.8533C156.955 71.4222 158.591 83.7224 155.461 95.4312L148.336 122.08C147.682 124.525 145.153 125.988 142.713 125.333Z" fill="white"/>
<defs>
<linearGradient id="paint0_linear_2201_4390" x1="30.4089" y1="170.819" x2="132.306" y2="65.5194" gradientUnits="userSpaceOnUse">
<stop stop-color="#0073FF"/>
<stop offset="1" stop-color="#00C2FF"/>
</linearGradient>
</defs>
</svg>

<svg width="212" height="212" fill="none" xmlns="http://www.w3.org/2000/svg"><circle cx="106" cy="106" r="106" fill="#fff" fill-opacity=".05"/><path d="M146.518 111.109a4.591 4.591 0 0 1-3.247-5.635l7.125-26.649c5.183-19.384-6.343-39.39-25.684-44.584-19.342-5.193-39.305 6.357-44.488 25.741l-7.12 26.63a4.579 4.579 0 0 1-5.623 3.254 4.59 4.59 0 0 1-3.246-5.635l7.12-26.63c3.135-11.727 10.666-21.547 21.23-27.644 10.546-6.102 22.82-7.742 34.503-4.604 11.684 3.137 21.499 10.69 27.583 21.276 6.089 10.57 7.725 22.87 4.595 34.578l-7.121 26.631c-.658 2.463-3.187 3.926-5.627 3.271Z" fill="#fff"/><path d="m54.168 32.632 19.075 5.123-6.347 23.738-19.075-5.122 6.347-23.739ZM167.814 63.15l19.075 5.122-6.347 23.74-19.075-5.123 6.347-23.739Z" fill="#505369"/><path d="M148.334 202.485 20.921 168.271c-5.45-1.464-8.727-7.126-7.262-12.606L40.727 54.426l147.236 39.538-27.068 101.239c-1.465 5.479-7.111 8.746-12.561 7.282Z" fill="#fff"/><path d="M148.334 202.485 20.921 168.271c-5.45-1.464-8.727-7.126-7.262-12.606L40.727 54.426l147.236 39.538-27.068 101.239c-1.465 5.479-7.111 8.746-12.561 7.282Z" fill="url(#a)"/><path d="M187.96 93.964c-8.821-4.99-15.127-10.892-13.616-16.684.951-3.628 5.637-7.019 12.532-9.032l-66.905-17.927-65.816-17.712c4.864 5.151 7.351 10.487 6.365 14.105-1.577 5.756-9.84 7.746-19.796 7.712L187.96 93.964ZM60.566 101.172a11.794 11.794 0 0 0 1.173 8.932 11.759 11.759 0 0 0 7.132 5.484 11.73 11.73 0 0 0 12.358-4.204 11.778 11.778 0 0 0 2.326-8.702 11.792 11.792 0 0 0-4.494-7.802 11.733 11.733 0 0 0-8.684-2.332 11.726 11.726 0 0 0-7.784 4.505 11.78 11.78 0 0 0-2.027 4.119ZM138.976 122.245a11.797 11.797 0 0 0 1.173 8.932 11.752 11.752 0 0 0 7.132 5.484 11.72 11.72 0 0 0 8.912-1.176 11.767 11.767 0 0 0 5.473-7.147 11.792 11.792 0 0 0-1.174-8.932 11.74 11.74 0 0 0-7.131-5.484 11.728 11.728 0 0 0-8.913 1.175 11.765 11.765 0 0 0-5.472 7.148Z" fill="#0073FF"/><path d="m155.426 123.987-8.87-2.382 7.125-26.648c.31-1.16.405-2.512.505-3.958.129-1.84.224-3.766.863-5.871l8.87 2.382c.231 2.491-.829 7.812-1.368 9.829l-7.125 26.648Zm-79.041-21.225-8.87-2.382 7.125-26.648c.554-2.07 1.43-3.92 2.213-5.566.617-1.307 1.22-2.561 1.506-3.632l8.87 2.382c-1.113 1.805-3.196 7.31-3.702 9.202l-7.125 26.649-.017-.005Z" fill="#0073FF"/><path d="M53.456 99.262a11.793 11.793 0 0 0 1.174 8.932 11.758 11.758 0 0 0 7.131 5.485 11.718 11.718 0 0 0 8.913-1.176 11.78 11.78 0 0 0 5.472-7.148 11.793 11.793 0 0 0-1.173-8.932 11.748 11.748 0 0 0-7.132-5.484 11.723 11.723 0 0 0-8.912 1.176 11.767 11.767 0 0 0-5.473 7.147ZM131.89 120.343a11.806 11.806 0 0 0 1.173 8.932 11.765 11.765 0 0 0 7.132 5.484 11.718 11.718 0 0 0 8.912-1.176 11.758 11.758 0 0 0 5.473-7.147 11.787 11.787 0 0 0-4.195-12.385 11.734 11.734 0 0 0-8.683-2.332 11.736 11.736 0 0 0-7.785 4.505 11.775 11.775 0 0 0-2.027 4.119Z" fill="#fff"/><path d="M142.713 125.333a4.59 4.59 0 0 1-3.246-5.635l7.125-26.648c5.182-19.384-6.343-39.39-25.685-44.584-19.342-5.194-39.305 6.356-44.487 25.74l-7.125 26.648a4.578 4.578 0 0 1-5.623 3.254 4.59 4.59 0 0 1-3.247-5.635l7.125-26.649c3.136-11.726 10.667-21.546 21.23-27.643 10.546-6.102 22.82-7.741 34.503-4.604 11.684 3.137 21.5 10.69 27.584 21.276 6.088 10.57 7.724 22.87 4.594 34.578l-7.125 26.649c-.654 2.445-3.183 3.908-5.623 3.253Z" fill="#fff"/><defs><linearGradient id="a" x1="30.409" y1="170.819" x2="132.306" y2="65.519" gradientUnits="userSpaceOnUse"><stop stop-color="#0073FF"/><stop offset="1" stop-color="#00C2FF"/></linearGradient></defs></svg>
